X:1
T:D Major William Billings, 1770
T:Isaac Watts, 1709 (Hymn 129, Book 2) 88. 88. (L. M.)
T:Unity
T:No Copyright.  Transcribed from The New-England Psalm-Singer, 1770.
%%score [ 1 2 3 4 ]
L:1/8
M:4/4
K:D
V:1 treble nm="Treble" snm="Tr."
V:2 treble nm="Counter" snm="C."
V:3 treble-8 nm="Tenor" snm="T."
V:4 bass nm="Bass" snm="B."
V:1
 d4 | f4 f4 | f4 e4 | d4 [Ace]4 | [Adf]4 [Adf]4 | [Adf]4 [Afa]4 | d4 c4 | d4 [Be]4 | %8
w: 1.~'Tis|by the|faith of|joys to|come We|walk through|de- serts|dark as|
 [Ace]4 [Ace]4 | [Bdg]4 [Ada]4 | [eg]4 [df]4 | [Bd]4 [Ace]4 | [Adf]4 [Adf]4 | [df]4 f4 | e4 [df]4 | %15
w: night; Till|we ar-|rive at|heaven our|home, Faith|is our|guide, and|
 [Bg]4 [Ae]4 | [Adf]8 |] %17
w: faith our|light.|
V:2
 F4 | A4 A4 | A4 E4 | [DA]4 [EA]4 | [FA]4 A4 | A4 A4 | B4 A4 | A4 B4 | A4 A4 | B4 A4 | B4 A4 | %11
w: 2.~The|want of|sight she|well sup-|plies, She|makes the|pear- ly|gates ap-|pear; Far|in- to|dis- tant|
 B4 A4 | A4 A4 | A4 A4 | A4 B4 | B4 A4 | A8 |] %17
w: worlds she|pries, And|brings e-|ter- nal|glo- ries|near.|
V:3
 d4 | d4 A4 | d4 g4 | f4 e4 | d4 A4 | d4 f4 | g4 e4 | d4 g4 | e4 c4 | d4 f4 | g4 a4 | g4 e4 | %12
w: 3.~Cheer-|ful we|tread the|des- ert|through, While|faith in-|spires a|heaven- ly|ray; Though|li- ons|roar, and|tem- pests|
 d4 d4 | A4 d4 | c4 d4 | d4 c4 | d8 |] %17
w: blow, And|rocks and|dan- gers|fill the|way.|
V:4
 D,4 | D,4 D,4 | D,4 [C,E,]4 | [B,,F,]4 [A,,A,]4 | D,4 D,4 | D,4 D,4 | G,4 A,4 | D,4 E,4 | %8
w: 4.~So|A- bram,|by di-|vine com-|mand, Left|his own|house to|walk with|
 A,4 A,4 | G,4 F,4 | E,4 D,4 | G,4 A,4 | D,4 D,4 | D,4 D,4 | [A,,A,]4 [B,,B,]4 | %15
w: God; His|faith be-|held the|pro- mised|land, And|fired bis|zeal a-|
 [G,,G,]4 [A,,A,]4 | [D,,D,]8 |] %17
w: long the|road.|

